X:1
T: French Lancers Quadrille Figure 5
C:
N:From the Haynes Family manuscript, Willamette Valley, Oregon, ca. 1863-1880.
N:Seattle's Small Pleasures contra dance band has made two tunes out of this:  parts A and
N:B are "Thomas Martin Haynes Hornpipe," one of the family members who played tunes
N:from the manuscript; and parts C and D are "Marilyn's Music," named for the music
N:store in Baker City, Oregon, owned by the inheritor of the manuscript.
Z: V. T. Williams
M:2/4
K:D
{d}d8!segno!|:af|dcde defg|a^gab a2cd|cdef gfed|c2AB AGFE|
dcde defg|a^gab a2cd|cdef gABc|d2d2d2!fine!y:|
|:(3ded|cded cBAG|FGAF D2EF|GFGA Bcde|c2A2 A2dc|
Begf edcB|Adfe dcBA|gfed cbag|f2d2 d2:|
|:af|dcde defg|a^gab a2cd|cdef gfed|c2AB AGFE|
dcde defg|a^gab a2cd|cdef gABc|d2d2d2:|
K:G
|:DG|B2DG B2DG|B2d2 d2ed|c2A2 A2dc|B2G2 G2DG|
B2DG B2DG|B2d2d2ed|c2A2 A2dc|B2G2 G2:|
K:D
|:ed|c2AB Ace2|d2AB Adf2|e2AB Aeg2|f2d2 d2ed|
c2AB Ace2|d2AB Adf2|cege cAFE|D2D2 D2!D.S.!y:|

